X:1
T:Title
%%score { ( 1 3 ) | 2 }
L:1/8
Q:1/4=100
M:6/8
K:Ab
V:1 treble nm="Grand Piano"
V:3 treble 
V:2 bass 
V:1
 [CA]2 [CE] [DF]2 [CE] | [CA]2 [DB] [Ec]2 [CEA] | G2 A B2 c | z3 B3 | [CA]2 [CE] [DF]2 [CE] | %5
w: William~Stevenson * * *|||||
 [EA]2 B c2 [CA] | [FB]2 [Fc] [Fd]2 [FB] | [EA]2 [DG] [CA]3 | c2 d e2 c | d2 B c2 A | B2 c d2 c | %11
w: ||||||
 B2 A B3 | c2 d e2 c | d2 B c2 [CEA] | [B,FB]2 [Fc] [Fd]2 [DFB] | [CEA]2 [B,DG] [A,CA]3 |] %16
w: |||||
V:2
 [A,,A,]2 [A,,A,] [A,,A,]2 [A,,A,] | [A,,A,]2 [A,,A,] [A,,A,]2 A,, | %2
 [E,B,D]2 [E,A,C] [E,G,E]2 [E,A,E] | [E,B,E]2 [E,A,E] .[E,G,E]3 | %4
 [A,,A,]2 [A,,A,] [A,,A,]2 [A,,A,] | [C,A,]2 [E,G,E] [A,E]2 [A,,A,] | %6
 [D,F,]2 [C,A,] [B,,B,]2 [D,B,] | [E,C]2 [E,B,] [A,,A,]3 | [A,E]2 [A,B,E] [A,CE]2 [A,E] | %9
 [E,B,E]2 [E,G,E] [A,E]2 [A,C] | [E,G,E]2 [E,A,E] [E,B,E]2 [A,E] | [G,B,E]2 [F,B,=D] [E,G,E]3 | %12
 [A,E]2 [A,B,E] [A,CE]2 [A,E] | [E,B,E]2 [E,G,E] [A,E]2 A,, | D,2 [C,=A,] [B,,B,]2 B,, | %15
 E,2 E, A,,3 |] %16
V:3
 x6 | x6 | x6 | d2 c z2 D | x6 | x6 | x6 | x6 | x6 | x6 | x6 | x6 | x6 | x6 | x6 | x6 |] %16

